X:1
T:Orlando di Lasso 1530 - 1594
T:Benedictus es Domine
%%score [ 1 2 3 4 ]
L:1/8
Q:1/4=240
M:4/2
K:C
V:1 treble nm="Cantus"
V:2 treble nm="Altus"
V:3 treble nm="Tenor"
V:4 treble nm="Bassus"
V:1
"^C""^Q""^;" x16 ||[K:F] z16 x4 | F8 G4 A4 x4 | A4 c6 =BA B4 x16 | c4 A4 G4 G4 x4 | A8 =B4 c4 | %6
w: ||Be- ne- di-|ctus es * * *|Do- mi- ne, Be-|ne- di- ctus,|
w: ||||||
 z8 F8 | G4 A4 A4 c4 x4 | d8 c4 A4 x4 | z8 F8 | G4 A4 A4 c6 x10 | B2 A2 G2 F2 G2 A4 G6 | %12
w: be-|ne- di- ctus es|Do- mi- ne,||||
w: |||Be-|ne- di- ctus es|* * * * * * Do-|
 G2 A8 z8 x10 | z4 c8 d6 | c2 B4 x10 |[M:4/2] A8 z8 | z4 d4 A4 c4 | =B6 B2 c4 A4 | G4 A4 z8 | %19
w: |do- ce||me|ju- sti- fi-|ca- ti- o- nes|tu- as:|
w: mi- ne,|||||||
 z4 c4 =B6 c2 | A8 G8 | F16 | E4 c8 B4 | A4 B6 AG A4 | G8 G12 | G4 G4 G4 ^F4 x4 | G4 A4 B8 x4 | %27
w: in la- bi-|is *|me-|is præ- nun-|ti- a- * * *|vi o-|mni- a iu- di-|ci- a, *|
w: |||||||* * o-|
 B4 B8 A8 | G6 G2 E8 | z8 x10 | z16 x14 | z8 F8 | D4 G6 F2 F6 x6 | ED E4 F4 C4 F4 | D4 C8 z4 x2 | %35
w: ||||o-|ris tu- * *|* * * i, * *||
w: mni- a iu-|di- ci- a|||||* * * * o- ris|tu- i,|
 c8 A4 x4 | B8 A6 GF x2 | G8 A4 F4 x4 | D4 G6 F2 F8 x8 | E2 D2 E8 F8 | F12 F4 x10 | %41
w: o- ris|tu- * * *|* i, o-|ris tu- * *|* * * i,|o- ris|
w: ||||||
 B8"^-" !fermata!x16 |] %42
w: tu-|
w: |
V:2
"^C""^Q""^;" x16 ||[K:F] z8 z4 C8 | D4 E4 F8 x4 | E4 z4 G8 x16 | F8 E4 F4 x4 | F4 D4 C4 C4 | %6
w: |Be-|ne- di ctus|es Do-|* mi- ne,|Be- ne- di- ctus,|
w: ||||||
 C8 D4 x4 | E8 F12 | F4 E4 D4 A,4 x4 | C8 D4 E4 | F8 E4 A2 G2 x12 | F2 E2 D2 C2 F8 x4 | E4 F8 z16 | %13
w: ||es Do- mi- ne,|Be- ne- di-|ctus es Do *||mi- ne,|
w: be- ne-|di- ctus,||||||
 F8 G8 x2 | x16 |[M:4/2] F8 z8 | z4 D4 F4 E4 | G6 G2 E4 F4 | E4 F4 z8 | z4 F4 G4 E4 | %20
w: do- ce||me,|ju- sti- fi-|ca- ti- o- nes|tu- as:|in la- bi-|
w: |||||||
 F6 F2 D4 G,4 | (3C6 B,2 A,4 D8 | G,4 G4 A4 G4 | F16 | E4 D8 D4 x4 | D8 _E8 x4 | D6 D2 F8 x4 | %27
w: is, * * *|* * * me-|is præ- nun- ti-|a-|vi o- mni-|a iu-|di- ci- a,|
w: * in la- bi-|is * * *||||||
 F12 F4 x4 | F4 F4 _E4 D4 | G,8 z8 x2 | z16 x14 | z4 C8 A,4 | B,8 A,6 G,F, x8 | G,8 A,4 F4 x2 | %34
w: ||||o- ris|tu- * * *|* i, *|
w: o- mni-|a iu- di- ci-|a||||* * o-|
 D4 G6 F2 F6 | ED E4 F4 F4 x2 | D4 G6 F2 F6 | ED E4 F4 C4 F4 x2 | D6 CB, A,2 B,2 C16 | %39
w: |* * * * o-|ris tu- * *|* * * i, * *||
w: ris tu- * *|* * * i *||* * * * o- ris|tu- * * * * *|
 C4 C8 C4 x4 | D6 E2 F8 x10 |"^-" !fermata!x16 x8 |] %42
w: * o- ris|tu- * *||
w: i, * *|||
V:3
"^C""^Q""^;" x16 ||[K:F][K:treble-8] F8 G4 A8 | A4 c16 | d6 d2 c24 | z4 F8 G4 x4 | A4 A4 x8 | %6
w: |Be- ne- di-|ctus es-|Do- mi- ne,-|||
w: ||||be- ne-|di- ctus|
 c8 d4 A4 | B6 A2 G4 F8 | G4 A4 A4 c8 | d4 G4 F8 | z8 z4 c8 x8 | d6 c2 B4 A4 x4 | A8 B8 x12 | %13
w: |* * * Be-|ne- di- ctus es|Do- mi- ne,|do-|ce * * me,||
w: es Do- mi-|ne, * * *|||||do- de|
 G4 x14 |[M:4/2][K:treble-8] z4 d4 A4 c4 | =B6 B2 c4 c4 | d8 c8 | z4 c4 =B6 c2 | A8 z8 | %19
w: |ju- st- fi-|ca- ti- o- nes|tu- as:|in la- bi-|is,|
w: me||||||
 z4 c4 =B6 c2 | A4 c6 =BA B4 | c4 e4 f4 d4 | d8 c8 | c4 =B8 B4 | =B8 c8 x4 | A4"^(  )" B4 c4 d8 | %26
w: in la- bi-|is me- * * *|is præ- nun- ti-|a- *|vi o- mni-|a iu-|di- ci- a, *|
w: ||||||* * * o-|
 d4 d8 c8 | c4 =B4 c4 c8 | A4 x12 | B8 A6 GF x2 | G8 A4 D4 x14 | G4 G4 c8 | z4 c8 A4 x8 | %33
w: |* * * o-|ris|tu- * * *|* i, *||o- ris|
w: mni- a iu-|di- ci- a *|||* * o-|ris tu- i,||
 B8 A6 GF x2 | G8 A4 F4 x2 | G4 G4 d8 | z4 c8 A4 x2 | B8 A12 | G2 F2 G8 A4 x12 | A8 A4 B6 x2 | %40
w: tu- * * *|* i, *||o- ris|tu- *|* * * i,||
w: |* * o-|ris tu- i,||||o- ris tu-|
 c2 d8 !fermata!x16 | x24 |] %42
w: ||
w: ||
V:4
"^Q""^;" x16 ||[K:F][K:bass] z8 z4 F,8 | D,4 C,4 F,6 G,2 x4 | A,4 G,8 E,4 x16 | F,4 C,8 F,8 | %5
w: |Be-|ne- di ctus *|* es Do-|mi- ne, *|
w: ||||* * Be-|
 G,4 A,8 E,4 | F,4 D,4 x8 | C,4 A,,4 z8 x4 | B,,8 C,4 D,8 | E,4 F,6 E,D, C,4 | F,4 D,4 C,4 z16 | %11
w: ||mi- ne,|Be- ne- di-|ctus es * * *|Do- mi- ne,|
w: ne- di- ctus|es Do-|||||
 z8 F,8 x4 | G,8 F,8 x12 | z16 x2 |[M:4/2] z4 D,4 F,4 E,4 | G,6 G,2 F,4 A,4 | G,8 A,8 | %17
w: do-|ce me||ju- st- fi-|ca- ti- o- nes|tu- as:|
w: ||||||
 z4 F,4 G,4 E,4 | F,8 z8 | z4 F,4 G,4 E,4 | F,8 D,8 | C,4 C,4 F,4 G,4 | D,4 C,2 B,,2 F,8 | %23
w: in la- bi-|is,||* me-|is præ- nun- ti-|a * * *|
w: ||in la- bi-|is *|||
 C,4 G,8 G,4 | G,8 C,8 x4 | D,4 G,4 F,4 B,,8 | B,,4 B,,8 F,8 | C,4 G,,4 C,8 x4 | F,8 x8 | %29
w: vi o- mni-|a iu-|di- ci- a, *|||o-|
w: ||* * * o-|mni- a iu-|di- ci- a||
 D,4 G,6 F,2 F,6 | E,D, E,4 F,8 z16 | C,8 F,8 | B,,8 C,16 | F,,8 x10 | z16 x2 | z8 F,8 | %36
w: ris tu * *|* * * i,|||||o-|
w: ||o- *|ris tu-|i,|||
 B,,6 C,2 D,8 x2 | C,16 x4 | F,,4 F,8 F,4 x12 | B,,16 x4 | !fermata!x16 x10 | x24 |] %42
w: ris, * *|tu-|i, * *||||
w: ||* o- ris|tu-|||

